dist/svgs/crypto-icons/icons/jbs.svg

<?xml version="1.0" encoding="UTF-8" standalone="yes"?>
<svg xmlns="http://www.w3.org/2000/svg" xmlns:xlink="http://www.w3.org/1999/xlink" width="512px" height="512px" viewBox="0 0 384 384" version="1.1">
  <g id="surface1">
    <path style=" stroke:none;fill-rule:nonzero;fill:rgb(0%,0%,0%);fill-opacity:1;" d="M 194.898438 384.292969 C 194.898438 384.292969 193.351562 371.3125 200.304688 358.953125 C 207.257812 346.589844 212.820312 344.894531 222.707031 334.234375 C 232.597656 323.570312 240.011719 316.152344 245.113281 314.457031 C 250.210938 312.757812 259.792969 315.074219 265.8125 315.074219 C 271.839844 315.074219 279.566406 311.363281 288.21875 313.683594 C 296.871094 316 294.398438 325.582031 299.808594 332.53125 C 305.214844 339.484375 317.578125 346.75 323.910156 346.441406 C 330.25 346.132812 331.636719 338.097656 335.65625 336.707031 C 339.671875 335.316406 348.941406 337.941406 355.585938 334.390625 C 362.230469 330.832031 364.390625 322.796875 367.328125 316.464844 C 370.265625 310.132812 377.679688 303.796875 377.679688 297.304688 C 377.679688 290.816406 367.714844 264.320312 352.652344 237.667969 C 337.585938 211.011719 319.738281 190.382812 314.175781 181.113281 C 308.613281 171.847656 302.355469 150.753906 294.9375 143.101562 C 287.523438 135.457031 280.339844 138.164062 276.167969 132.136719 C 271.992188 126.109375 280.800781 79.835938 240.472656 38.578125 C 200.152344 -2.679688 126.21875 -16.585938 71.289062 25.597656 C 16.359375 67.777344 2.222656 120.15625 12.1875 165.121094 C 22.15625 210.082031 58.308594 268.023438 131.085938 273.816406 C 203.859375 279.609375 222.863281 218.65625 223.558594 207.300781 C 224.253906 195.945312 216.609375 188.527344 216.609375 188.527344 C 216.609375 188.527344 214.523438 226.535156 176.746094 234.648438 C 138.96875 242.761719 108.835938 216.800781 98.410156 188.527344 C 87.976562 160.253906 90.761719 131.050781 106.519531 113.203125 C 122.28125 95.359375 157.972656 80.988281 176.28125 112.046875 C 169.5625 111.582031 138.96875 114.828125 136.417969 122.011719 C 133.867188 129.191406 150.324219 164.886719 162.375 174.386719 C 174.425781 183.890625 194.359375 182.035156 202.238281 178.558594 C 194.359375 175.316406 181.382812 168.363281 174.890625 158.859375 C 168.402344 149.355469 166.085938 141.015625 169.328125 136.613281 C 172.574219 132.207031 215.21875 140.316406 215.21875 140.316406 C 215.21875 140.316406 228.894531 109.261719 198.066406 79.597656 C 167.238281 49.929688 108.601562 58.042969 82.878906 92.808594 C 57.152344 127.574219 53.675781 186.210938 95.160156 229.085938 C 42.085938 211.007812 11.957031 132.90625 64.105469 68.9375 C 119.960938 1.722656 192.039062 33.941406 214.984375 55.726562 C 237.925781 77.511719 264.8125 113.667969 243.257812 162.800781 C 263.191406 166.507812 262.957031 188.0625 262.957031 188.0625 C 262.957031 188.0625 277.789062 178.5625 285.902344 185.050781 C 294.015625 191.542969 292.390625 201.503906 293.550781 203.59375 C 294.710938 205.679688 311.628906 231.40625 310.007812 233.027344 C 308.382812 234.648438 294.015625 217.496094 280.574219 207.996094 C 267.132812 198.496094 248.125 195.019531 248.125 195.019531 C 248.125 195.019531 269.449219 207.765625 269.914062 223.523438 C 270.375 239.28125 247.664062 265.242188 247.664062 265.242188 C 247.664062 265.242188 266.4375 265.011719 276.632812 259.914062 C 286.828125 254.8125 290.773438 249.023438 297.03125 249.023438 C 303.289062 249.023438 317.195312 263.390625 326 275.441406 C 334.808594 287.492188 343.382812 304.644531 343.382812 304.644531 L 356.824219 292.828125 C 356.824219 292.828125 361.925781 308.582031 353.347656 316.230469 C 344.773438 323.882812 323.683594 322.957031 323.683594 322.957031 C 323.683594 322.957031 320.207031 313.453125 307.226562 302.792969 C 294.246094 292.132812 284.28125 285.410156 284.28125 285.410156 C 284.28125 285.410156 273.15625 298.851562 248.820312 298.851562 C 224.484375 298.851562 216.144531 284.714844 216.144531 284.714844 C 216.144531 284.714844 191.578125 290.273438 178.597656 318.320312 C 165.617188 346.363281 170.949219 362.585938 175.355469 368.84375 C 179.753906 375.097656 186.167969 382.128906 194.898438 384.292969 Z M 194.898438 384.292969 "/>
  </g>
</svg>

<svg xmlns="http://www.w3.org/2000/svg" viewBox="0 0 384 384"><path d="M194.898 384.293s-1.546-12.98 5.407-25.34c6.953-12.363 12.515-14.058 22.402-24.719 9.89-10.664 17.305-18.082 22.406-19.777 5.098-1.7 14.68.617 20.7.617 6.027 0 13.753-3.71 22.406-1.39 8.652 2.316 6.18 11.898 11.59 18.847 5.406 6.953 17.77 14.219 24.101 13.91 6.34-.308 7.727-8.343 11.746-9.734 4.016-1.39 13.285 1.234 19.93-2.316 6.644-3.559 8.805-11.594 11.742-17.926 2.938-6.332 10.352-12.668 10.352-19.16 0-6.489-9.965-32.985-25.028-59.637-15.066-26.656-32.914-47.285-38.476-56.555-5.563-9.265-11.82-30.36-19.238-38.011-7.415-7.645-14.598-4.938-18.77-10.965-4.176-6.028 4.633-52.301-35.695-93.559-40.32-41.258-114.254-55.164-169.184-12.98-54.93 42.18-69.066 94.558-59.102 139.523 9.97 44.961 46.122 102.902 118.899 108.695 72.773 5.793 91.777-55.16 92.473-66.515.695-11.356-6.95-18.774-6.95-18.774s-2.086 38.008-39.863 46.121c-37.777 8.114-67.91-17.847-78.336-46.12-10.433-28.274-7.648-57.477 8.11-75.325 15.761-17.844 51.453-32.215 69.761-1.156-6.719-.465-37.312 2.781-39.863 9.965-2.55 7.18 13.906 42.875 25.957 52.375 12.05 9.504 31.984 7.648 39.863 4.172-7.879-3.243-20.855-10.196-27.347-19.7-6.489-9.504-8.805-17.843-5.563-22.246 3.246-4.406 45.89 3.703 45.89 3.703s13.677-31.054-17.152-60.718C167.238 49.93 108.602 58.043 82.88 92.808c-25.727 34.766-29.203 93.403 12.281 136.278-53.074-18.078-83.203-96.18-31.055-160.149 55.856-67.214 127.934-34.996 150.88-13.21 22.94 21.785 49.827 57.941 28.273 107.074 19.933 3.707 19.699 25.262 19.699 25.262s14.832-9.5 22.945-3.012c8.114 6.492 6.489 16.453 7.649 18.543 1.16 2.086 18.078 27.812 16.457 29.433-1.625 1.621-15.992-15.53-29.434-25.03-13.441-9.5-32.449-12.977-32.449-12.977s21.324 12.746 21.79 28.503c.46 15.758-22.25 41.72-22.25 41.72s18.773-.231 28.968-5.329c10.195-5.101 14.14-10.89 20.398-10.89 6.258 0 20.164 14.367 28.969 26.417 8.809 12.051 17.383 29.204 17.383 29.204l13.441-11.817s5.102 15.754-3.476 23.402c-8.575 7.653-29.664 6.727-29.664 6.727s-3.477-9.504-16.457-20.164c-12.98-10.66-22.946-17.383-22.946-17.383s-11.125 13.442-35.46 13.442c-24.337 0-32.676-14.137-32.676-14.137s-24.567 5.558-37.547 33.605c-12.98 28.043-7.649 44.266-3.243 50.524 4.399 6.254 10.813 13.285 19.543 15.449zm0 0"/></svg>
